assets/terraform/plain.svg

<svg viewBox="0 0 128 128" xmlns="http://www.w3.org/2000/svg"><path d="m46.324 26.082 31.617 18.418v36.836l-31.617-18.418zm35.086 18.418v36.836l31.633-18.418v-36.836zm-70.168-38.977v36.837l31.618 18.417v-36.836zm66.699 79.852-31.617-18.418v36.824l31.617 18.419zm0 0" fill-rule="evenodd"/></svg>

<svg xmlns="http://www.w3.org/2000/svg" viewBox="0 0 128 128"><path fill-rule="evenodd" d="M46.324 26.082 77.941 44.5v36.836L46.324 62.918zM81.41 44.5v36.836l31.633-18.418V26.082zM11.242 5.523V42.36L42.86 60.777V23.941zm66.699 79.852L46.324 66.957v36.824L77.941 122.2zm0 0"/></svg>
